X:2190
T: Briuletul
O: Romania
M: 2/4
L: 1/8
Q: 1/4=180
K: E
%%MIDI gchord fzfz
|:"E"EA2c|EAc2|"B"f/e/d f/e/d|"E"e2 c2|EA2c|EAc2|
"B"f/e/d f/e/d|"E"e2 a2|: c/d/e =g/f/e|=g/f/e c2|c/d/e =g/f/e|
e2 c2| c/d/e =g/f/e|=g/f/e c2| c/d/e =g/f/e|e2 a2:|:
 "B"B2fe|def2| "E"=g/f/e d=c|"B"B2 B2|B2fe|def2|"E"=g/f/e d=c|
"B"B2 B2:|: "A"A2B2|A2B2|A2A2|A4|A2B2|A2B2|A2A2|A4:|


